Yaru++/mimetypes/16/application-vnd.squashfs.svg

<svg height="16" viewBox="0 0 4.233125 4.233125" width="16" xmlns="http://www.w3.org/2000/svg" xmlns:xlink="http://www.w3.org/1999/xlink"><linearGradient id="a" gradientUnits="userSpaceOnUse" x1="328" x2="328" y1="237" y2="251"><stop offset="0" stop-color="#fff"/><stop offset=".125" stop-color="#fff" stop-opacity=".098039"/><stop offset=".92500001" stop-color="#fff" stop-opacity=".098039"/><stop offset="1" stop-color="#fff" stop-opacity=".498039"/></linearGradient><clipPath id="b"><path d="m325.09646 237c-2.80769 0-3.10979.28839-3.09603 3.10176v3.89824 3.89824c-.0138 2.81337.28834 3.10176 3.09603 3.10176h5.8075c2.8077 0 3.09604-.28835 3.09604-3.10176v-3.89824-3.89824c0-2.8134-.28835-3.10176-3.09604-3.10176z"/></clipPath><linearGradient id="c" gradientTransform="matrix(.04166461 0 0 .04166463 1.080478 -9.22159)" gradientUnits="userSpaceOnUse" x1="13.735326" x2="38.099998" y1="249.69423" y2="292.76666"><stop offset="0" stop-color="#cdcdcd"/><stop offset="1" stop-color="#d9d9d9"/></linearGradient><linearGradient id="d" gradientTransform="matrix(0 -.00953618 .00953591 0 -.942985 4.473643)" gradientUnits="userSpaceOnUse" x1="459.03448" x2="35.310345" y1="419.23337" y2="207.36522"><stop offset="0" stop-color="#f2f2f2"/><stop offset="1" stop-color="#f9f9f9"/></linearGradient><path d="m1.3483185.26457025c-.1902366 0-.3444309.003678-.48573256.0273883-.14130436.02373198-.28264046.07309551-.39065659.18085764-.10801348.10775949-.15783472.24955066-.18137354.39116985-.02354675.14162186-.02677187.29644576-.02584851.48728566v.7652908 1.0314115c-.00079372.1900038.002381.3445631.0258485.4857352.0235468.1416192.0733574.2834104.18137354.3911699.10801613.1077621.24935223.1571389.39065659.1808576.14130167.023732.29549597.027388.48573257.027388h1.5367831c.1902367 0 .3440949-.00362.4852167-.027388.1411245-.0237584.2824765-.0735294.3901381-.1813736.1076616-.1078441.1571653-.249413.1808576-.3906539.0236949-.1412435.0273883-.2951308.0273883-.4857352v-1.0314115-.7668412c0-.1906044-.0037-.3444917-.027388-.48573526-.0236794-.14124086-.0731963-.28280979-.1808579-.39065394s-.2490136-.1576257-.3901381-.18137353c-.1411218-.02375048-.29498-.02738832-.4852167-.02738832z" opacity=".1"/><path d="m1.3485196.26457025c-.74283143 0-.82275813.0762994-.81911763.82063365v1.0313586 1.0313586c-.003651.7443342.0762862.8206336.81911763.8206336h1.5364921c.7428341 0 .8191203-.076289.8191203-.8206336v-1.0313586-1.0313586c0-.74434215-.076289-.82063365-.8191203-.82063365z" fill="none" opacity=".2" stroke="#000" stroke-width=".529141"/><path d="m1.3485196.26457025c-.74283143 0-.82275813.0762994-.81911763.82063365v1.0313586 1.0313586c-.003651.7443342.0762862.8206336.81911763.8206336h1.5364921c.7428341 0 .8191203-.076289.8191203-.8206336v-1.0313586-1.0313586c0-.74434215-.076289-.82063365-.8191203-.82063365z" fill="url(#d)"/><ellipse cx="-2.116702" cy="-2.182705" opacity=".1" rx=".925996" ry=".859853" transform="scale(-1)"/><circle cx="2.11671" cy="2.116563" fill="url(#c)" r=".992139"/><path d="m2.1167101 1.1244238a.99213857.99213857 0 0 0 -.9921387.9921387h.9921387zm0 .9921387v.9921387a.99213857.99213857 0 0 0 .9921387-.9921387z" fill="#fff" opacity=".2"/><path d="m2.7247165 1.5085535a.85985341.85985341 0 0 0 -1.2160155 0l.6080064.608009zm-.6080091.608009-.6080064.6080064a.85985341.85985341 0 0 0 1.2160155 0z" opacity=".02"/><path d="m1.8460758 1.1620642a.99213857.99213857 0 0 0 -.018017.00611.99213857.99213857 0 0 1 .04798-.01299.99213857.99213857 0 0 0 -.029963.00688zm.078125-.017991a.99213857.99213857 0 0 1 .048874-.00812.99213857.99213857 0 0 0 -.048874.00812zm-.1429632.039937a.99213857.99213857 0 0 0 -.046392.017726.99213857.99213857 0 0 1 .046392-.017726zm.2411214-.0543082a.99213857.99213857 0 0 1 .049242-.0032.99213857.99213857 0 0 0 -.049242.0032zm-.332467.092433a.99213857.99213857 0 0 0 -.044593.022356.99213857.99213857 0 0 1 .044593-.022356zm.431456-.096944a.99213857.99213857 0 0 1 .049483.00185.99213857.99213857 0 0 0 -.049483-.00185zm-.5185287.1439898a.99213857.99213857 0 0 0 -.042191.026711.99213857.99213857 0 0 1 .042191-.026711zm.6173272-.1385978a.99213857.99213857 0 0 1 .049189.00672.99213857.99213857 0 0 0 -.049189-.00672zm-.6993625.194147a.99213857.99213857 0 0 0 -.039321.030812.99213857.99213857 0 0 1 .039321-.030812zm.7974546-.1788733a.99213857.99213857 0 0 1 .047932.011482.99213857.99213857 0 0 0 -.047932-.011482zm-.8878292.255051a.99213857.99213857 0 0 0 -.011244.010504.99213857.99213857 0 0 1 .011244-.010504zm-.014842.014366a.99213857.99213857 0 0 0 -.1579542.2051957l.8592106.496064zm.7012564.7012597.7012542.7012621a.99213857.99213857 0 0 0 .1579565-.2051954zm.2972871-.9457489a.99213857.99213857 0 0 1 .046644.016245.99213857.99213857 0 0 0 -.046644-.016245zm.092877.034384a.99213857.99213857 0 0 1 .045022.020954.99213857.99213857 0 0 0 -.045022-.020954zm.089039.043509a.99213857.99213857 0 0 1 .016271.00966l.0005291-.00106a.99213857.99213857 0 0 0 -.016853-.00865zm-.9746823 1.7260488-.0005292.00106a.99213857.99213857 0 0 0 .016853.00865.99213857.99213857 0 0 1 -.016271-.00966zm.060293.032225a.99213857.99213857 0 0 0 .045019.020954.99213857.99213857 0 0 1 -.045019-.020954zm.091253.039082a.99213857.99213857 0 0 0 .046646.016244.99213857.99213857 0 0 1 -.046646-.016244zm1.0415946-.224338a.99213857.99213857 0 0 1 -.011244.010477.99213857.99213857 0 0 0 .011244-.010477zm-.9470136.2540378a.99213857.99213857 0 0 0 .047932.011509.99213857.99213857 0 0 1 -.047932-.011509zm.8847073-.198187a.99213857.99213857 0 0 1 -.039318.030812.99213857.99213857 0 0 0 .039318-.030812zm-.7878719.2182546a.99213857.99213857 0 0 0 .049191.00672.99213857.99213857 0 0 1 -.049191-.00672zm.7087071-.1586046a.99213857.99213857 0 0 1 -.042191.026711.99213857.99213857 0 0 0 .042191-.026711zm-.6102023.1689308a.99213857.99213857 0 0 0 .049483.00185.99213857.99213857 0 0 1 -.049483-.00185zm.5255319-.1175301a.99213857.99213857 0 0 1 -.044593.022356.99213857.99213857 0 0 0 .044593-.022356zm-.4263022.1179878a.99213857.99213857 0 0 0 .049242-.0032.99213857.99213857 0 0 1 -.049242.0032zm.3367557-.0752226a.99213857.99213857 0 0 1 -.046392.017726.99213857.99213857 0 0 0 .046392-.017726zm-.2382297.06577a.99213857.99213857 0 0 0 .048871-.00812.99213857.99213857 0 0 1 -.048871.00812zm.1450163-.032214a.99213857.99213857 0 0 1 -.047977.01299.99213857.99213857 0 0 0 .047977-.01299z" fill="#faf8f6"/><circle cx="2.116702" cy="-2.116559" fill="#aea795" r=".396855" transform="scale(1 -1)"/><circle cx="2.116702" cy="2.116559" fill="#faf8f6" r=".26457"/><circle cx="2.116702" cy="2.116559" fill="#4d4d4d" r=".132285"/><path clip-path="url(#b)" d="m325.09646 237c-2.80769 0-3.10979.28839-3.09603 3.10176v3.89824 3.89824c-.0138 2.81337.28834 3.10176 3.09603 3.10176h5.8075c2.8077 0 3.09604-.28835 3.09604-3.10176v-3.89824-3.89824c0-2.8134-.28835-3.10176-3.09604-3.10176z" fill="none" opacity=".4" stroke="url(#a)" stroke-width="2" transform="matrix(.26457031 0 0 .26457031 -84.662352 -62.438594)"/></svg>

<?xml version="1.0" encoding="UTF-8" standalone="no"?>
<svg
   xmlns:dc="http://purl.org/dc/elements/1.1/"
   xmlns:cc="http://creativecommons.org/ns#"
   xmlns:rdf="http://www.w3.org/1999/02/22-rdf-syntax-ns#"
   xmlns:svg="http://www.w3.org/2000/svg"
   xmlns="http://www.w3.org/2000/svg"
   xmlns:xlink="http://www.w3.org/1999/xlink"
   xmlns:sodipodi="http://sodipodi.sourceforge.net/DTD/sodipodi-0.dtd"
   xmlns:inkscape="http://www.inkscape.org/namespaces/inkscape"
   height="16"
   viewBox="0 0 4.233125 4.233125"
   width="16"
   version="1.1"
   id="svg41"
   sodipodi:docname="application-x-img.svg"
   inkscape:version="0.92.5 (2060ec1f9f, 2020-04-08)">
  <metadata
     id="metadata47">
    <rdf:RDF>
      <cc:Work
         rdf:about="">
        <dc:format>image/svg+xml</dc:format>
        <dc:type
           rdf:resource="http://purl.org/dc/dcmitype/StillImage" />
      </cc:Work>
    </rdf:RDF>
  </metadata>
  <defs
     id="defs45">
    <linearGradient
       inkscape:collect="always"
       xlink:href="#linearGradient927"
       id="linearGradient993"
       x1="328"
       y1="237"
       x2="328"
       y2="251"
       gradientUnits="userSpaceOnUse" />
    <linearGradient
       inkscape:collect="always"
       id="linearGradient927">
      <stop
         style="stop-color:#ffffff;stop-opacity:1;"
         offset="0"
         id="stop923" />
      <stop
         id="stop933"
         offset="0.125"
         style="stop-color:#ffffff;stop-opacity:0.09803922" />
      <stop
         id="stop931"
         offset="0.92500001"
         style="stop-color:#ffffff;stop-opacity:0.09803922" />
      <stop
         style="stop-color:#ffffff;stop-opacity:0.49803922"
         offset="1"
         id="stop925" />
    </linearGradient>
    <clipPath
       clipPathUnits="userSpaceOnUse"
       id="clipPath983">
      <path
         sodipodi:nodetypes="scccssscsss"
         inkscape:connector-curvature="0"
         id="path985"
         d="m 325.09646,237 c -2.80769,0 -3.10979,0.28839 -3.09603,3.10176 V 244 v 3.89824 c -0.0138,2.81337 0.28834,3.10176 3.09603,3.10176 h 5.8075 C 333.71166,251 334,250.71165 334,247.89824 V 244 240.10176 C 334,237.28836 333.71165,237 330.90396,237 Z"
         style="color:#000000;display:inline;overflow:visible;visibility:visible;opacity:1;fill:#46a926;fill-opacity:1;fill-rule:nonzero;stroke:none;stroke-width:2;stroke-miterlimit:4;stroke-dasharray:none;stroke-opacity:1;marker:none;enable-background:accumulate" />
    </clipPath>
    <linearGradient
       inkscape:collect="always"
       xlink:href="#linearGradient1048"
       id="linearGradient8588-0-1-5-8"
       gradientUnits="userSpaceOnUse"
       gradientTransform="matrix(0.04166461,0,0,0.04166463,1.0804781,-9.2215902)"
       x1="13.735326"
       y1="249.69423"
       x2="38.099998"
       y2="292.76666" />
    <linearGradient
       inkscape:collect="always"
       id="linearGradient1048">
      <stop
         style="stop-color:#cdcdcd;stop-opacity:1;"
         offset="0"
         id="stop1044" />
      <stop
         style="stop-color:#d9d9d9;stop-opacity:1"
         offset="1"
         id="stop1046" />
    </linearGradient>
    <linearGradient
       inkscape:collect="always"
       xlink:href="#linearGradient4338"
       id="linearGradient920"
       gradientUnits="userSpaceOnUse"
       gradientTransform="matrix(0,-0.00953618,0.00953591,0,-0.94298471,4.4736432)"
       x1="459.03448"
       y1="419.23337"
       x2="35.310345"
       y2="207.36522" />
    <linearGradient
       inkscape:collect="always"
       id="linearGradient4338">
      <stop
         style="stop-color:#f2f2f2;stop-opacity:1"
         offset="0"
         id="stop4340" />
      <stop
         style="stop-color:#f9f9f9;stop-opacity:1"
         offset="1"
         id="stop4342" />
    </linearGradient>
  </defs>
  <sodipodi:namedview
     pagecolor="#ffffff"
     bordercolor="#666666"
     borderopacity="1"
     objecttolerance="10"
     gridtolerance="10"
     guidetolerance="10"
     inkscape:pageopacity="0"
     inkscape:pageshadow="2"
     inkscape:window-width="774"
     inkscape:window-height="480"
     id="namedview43"
     showgrid="false"
     inkscape:zoom="14.75"
     inkscape:cx="8"
     inkscape:cy="8"
     inkscape:window-x="0"
     inkscape:window-y="27"
     inkscape:window-maximized="0"
     inkscape:current-layer="svg41" />
  <linearGradient
     id="a"
     gradientUnits="userSpaceOnUse"
     x1="328"
     x2="328"
     y1="237"
     y2="251">
    <stop
       offset="0"
       stop-color="#fff"
       id="stop2" />
    <stop
       offset=".125"
       stop-color="#fff"
       stop-opacity=".098039"
       id="stop4" />
    <stop
       offset=".92500001"
       stop-color="#fff"
       stop-opacity=".098039"
       id="stop6" />
    <stop
       offset="1"
       stop-color="#fff"
       stop-opacity=".498039"
       id="stop8" />
  </linearGradient>
  <clipPath
     id="b">
    <path
       d="m325.09646 237c-2.80769 0-3.10979.28839-3.09603 3.10176v3.89824 3.89824c-.0138 2.81337.28834 3.10176 3.09603 3.10176h5.8075c2.8077 0 3.09604-.28835 3.09604-3.10176v-3.89824-3.89824c0-2.8134-.28835-3.10176-3.09604-3.10176z"
       id="path11" />
  </clipPath>
  <linearGradient
     gradientUnits="userSpaceOnUse"
     x1="334.86633"
     x2="334.86633"
     y1="140.23035"
     y2="160.63107"
     id="linearGradient18">
    <stop
       offset="0"
       stop-color="#808080"
       id="stop14" />
    <stop
       offset="1"
       stop-color="#999"
       id="stop16" />
  </linearGradient>
  <linearGradient
     id="c"
     gradientTransform="matrix(0 -.00953618 .00953591 0 -.942984 4.47364)"
     gradientUnits="userSpaceOnUse"
     x1="459.03448"
     x2="35.310345"
     y1="419.23337"
     y2="207.36522">
    <stop
       offset="0"
       stop-color="#f2f2f2"
       id="stop20" />
    <stop
       offset="1"
       stop-color="#f9f9f9"
       id="stop22" />
  </linearGradient>
  <path
     style="color:#000000;font-style:normal;font-variant:normal;font-weight:normal;font-stretch:normal;font-size:medium;line-height:normal;font-family:sans-serif;font-variant-ligatures:normal;font-variant-position:normal;font-variant-caps:normal;font-variant-numeric:normal;font-variant-alternates:normal;font-feature-settings:normal;text-indent:0;text-align:start;text-decoration:none;text-decoration-line:none;text-decoration-style:solid;text-decoration-color:#000000;letter-spacing:normal;word-spacing:normal;text-transform:none;writing-mode:lr-tb;direction:ltr;text-orientation:mixed;dominant-baseline:auto;baseline-shift:baseline;text-anchor:start;white-space:normal;shape-padding:0;clip-rule:nonzero;display:inline;overflow:visible;visibility:visible;opacity:0.1;isolation:auto;mix-blend-mode:normal;color-interpolation:sRGB;color-interpolation-filters:linearRGB;solid-color:#000000;solid-opacity:1;vector-effect:none;fill:#000000;fill-opacity:1;fill-rule:nonzero;stroke:none;stroke-width:0.52914065;stroke-linecap:butt;stroke-linejoin:miter;stroke-miterlimit:4;stroke-dasharray:none;stroke-dashoffset:0;stroke-opacity:1;marker:none;color-rendering:auto;image-rendering:auto;shape-rendering:auto;text-rendering:auto;enable-background:accumulate"
     d="m 1.3483185,0.26457025 c -0.1902366,0 -0.3444309,0.003678 -0.48573256,0.0273883 C 0.72128158,0.31569053 0.57994548,0.36505406 0.47192935,0.47281619 0.36391587,0.58057568 0.31409463,0.72236685 0.29055581,0.86398604 0.26700906,1.0056079 0.26378394,1.1604318 0.2647073,1.3512717 V 2.1165625 3.147974 c -7.9372e-4,0.1900038 0.002381,0.3445631 0.0258485,0.4857352 0.0235468,0.1416192 0.0733574,0.2834104 0.18137354,0.3911699 0.10801613,0.1077621 0.24935223,0.1571389 0.39065659,0.1808576 0.14130167,0.023732 0.29549597,0.027388 0.48573257,0.027388 h 1.5367831 c 0.1902367,0 0.3440949,-0.00362 0.4852167,-0.027388 C 3.5114428,4.1819783 3.6527948,4.1322073 3.7604564,4.0243631 3.868118,3.916519 3.9176217,3.7749501 3.941314,3.6337092 3.9650089,3.4924657 3.9687023,3.3385784 3.9687023,3.147974 V 2.1165625 1.3497213 c 0,-0.1906044 -0.0037,-0.3444917 -0.027388,-0.48573526 C 3.9176349,0.72274518 3.868118,0.58117625 3.7604564,0.4733321 3.6527948,0.36548795 3.5114428,0.3157064 3.3703183,0.29195857 3.2291965,0.26820809 3.0753383,0.26457025 2.8851016,0.26457025 Z"
     id="path997"
     inkscape:connector-curvature="0"
     sodipodi:nodetypes="scscccccccsscscscscscss" />
  <path
     sodipodi:nodetypes="scccssscsss"
     inkscape:connector-curvature="0"
     id="path928"
     d="m 1.3485196,0.26457025 c -0.74283143,0 -0.82275813,0.0762994 -0.81911763,0.82063365 v 1.0313586 1.0313586 c -0.003651,0.7443342 0.0762862,0.8206336 0.81911763,0.8206336 h 1.5364921 c 0.7428341,0 0.8191203,-0.076289 0.8191203,-0.8206336 V 2.1165625 1.0852039 c 0,-0.74434215 -0.076289,-0.82063365 -0.8191203,-0.82063365 z"
     style="color:#000000;display:inline;overflow:visible;visibility:visible;opacity:0.2;fill:none;fill-opacity:1;fill-rule:nonzero;stroke:#000000;stroke-width:0.52914065;stroke-miterlimit:4;stroke-dasharray:none;stroke-opacity:1;marker:none;enable-background:accumulate" />
  <path
     style="color:#000000;display:inline;overflow:visible;visibility:visible;fill:url(#linearGradient920);fill-opacity:1;fill-rule:nonzero;stroke:none;stroke-width:0.26457033;marker:none;enable-background:accumulate"
     d="m 1.3485196,0.26457025 c -0.74283143,0 -0.82275813,0.0762994 -0.81911763,0.82063365 v 1.0313586 1.0313586 c -0.003651,0.7443342 0.0762862,0.8206336 0.81911763,0.8206336 h 1.5364921 c 0.7428341,0 0.8191203,-0.076289 0.8191203,-0.8206336 V 2.1165625 1.0852039 c 0,-0.74434215 -0.076289,-0.82063365 -0.8191203,-0.82063365 z"
     id="path918"
     inkscape:connector-curvature="0"
     sodipodi:nodetypes="scccssscsss" />
  <ellipse
     style="display:inline;opacity:0.1;fill:#000000;fill-opacity:1;stroke:none;stroke-width:0.25853506;stroke-linecap:round;stroke-linejoin:round;stroke-miterlimit:4;stroke-dasharray:none;stroke-opacity:1;enable-background:new"
     id="path9498-0-0-2-3-3-1"
     cx="-2.1167021"
     cy="-2.1827052"
     transform="scale(-1)"
     rx="0.92599577"
     ry="0.85985345" />
  <circle
     style="display:inline;opacity:1;fill:url(#linearGradient8588-0-1-5-8);fill-opacity:1;stroke:none;stroke-width:0.24729437;stroke-linecap:round;stroke-linejoin:round;stroke-miterlimit:4;stroke-dasharray:none;stroke-opacity:1;enable-background:new"
     id="path9498-6-5-6-8-8"
     cx="2.1167102"
     cy="2.1165626"
     r="0.99213868" />
  <path
     inkscape:connector-curvature="0"
     style="display:inline;opacity:0.2;fill:#ffffff;fill-opacity:1;stroke:none;stroke-width:0.00767726;stroke-linecap:round;stroke-linejoin:round;stroke-miterlimit:4;stroke-dasharray:none;stroke-opacity:1;enable-background:new"
     d="M 2.1167101,1.1244238 A 0.99213857,0.99213857 0 0 0 1.1245714,2.1165625 h 0.9921387 z m 0,0.9921387 V 3.1087012 A 0.99213857,0.99213857 0 0 0 3.1088488,2.1165625 Z"
     id="path11042-53-1-6-2-2-9" />
  <path
     inkscape:connector-curvature="0"
     style="display:inline;opacity:0.02000002;fill:#000000;fill-opacity:1;stroke:none;stroke-width:0.00767726;stroke-linecap:round;stroke-linejoin:round;stroke-miterlimit:4;stroke-dasharray:none;stroke-opacity:1;enable-background:new"
     d="m 2.7247165,1.5085535 a 0.85985341,0.85985341 0 0 0 -1.2160155,0 l 0.6080064,0.608009 z M 2.1167074,2.1165625 1.508701,2.7245689 a 0.85985341,0.85985341 0 0 0 1.2160155,0 z"
     id="path11042-53-6-27-2-0-2-6" />
  <path
     style="display:inline;opacity:1;fill:#faf8f6;fill-opacity:1;stroke:none;stroke-width:0.00767726;stroke-linecap:round;stroke-linejoin:round;stroke-miterlimit:4;stroke-dasharray:none;stroke-opacity:1;enable-background:new"
     d="m 1.8460758,1.1620642 a 0.99213857,0.99213857 0 0 0 -0.018017,0.00611 0.99213857,0.99213857 0 0 1 0.04798,-0.01299 0.99213857,0.99213857 0 0 0 -0.029963,0.00688 z m 0.078125,-0.017991 a 0.99213857,0.99213857 0 0 1 0.048874,-0.00812 0.99213857,0.99213857 0 0 0 -0.048874,0.00812 z m -0.1429632,0.039937 a 0.99213857,0.99213857 0 0 0 -0.046392,0.017726 0.99213857,0.99213857 0 0 1 0.046392,-0.017726 z M 2.022359,1.129702 a 0.99213857,0.99213857 0 0 1 0.049242,-0.0032 0.99213857,0.99213857 0 0 0 -0.049242,0.0032 z M 1.689892,1.222135 A 0.99213857,0.99213857 0 0 0 1.645299,1.244491 0.99213857,0.99213857 0 0 1 1.689892,1.222135 Z M 2.121348,1.125191 A 0.99213857,0.99213857 0 0 1 2.170831,1.127041 0.99213857,0.99213857 0 0 0 2.121348,1.125191 Z M 1.6028193,1.2691808 a 0.99213857,0.99213857 0 0 0 -0.042191,0.026711 0.99213857,0.99213857 0 0 1 0.042191,-0.026711 z M 2.2201465,1.130583 a 0.99213857,0.99213857 0 0 1 0.049189,0.00672 0.99213857,0.99213857 0 0 0 -0.049189,-0.00672 z M 1.520784,1.32473 A 0.99213857,0.99213857 0 0 0 1.481463,1.355542 0.99213857,0.99213857 0 0 1 1.520784,1.32473 Z M 2.3182386,1.1458567 a 0.99213857,0.99213857 0 0 1 0.047932,0.011482 0.99213857,0.99213857 0 0 0 -0.047932,-0.011482 z m -0.8878292,0.255051 a 0.99213857,0.99213857 0 0 0 -0.011244,0.010504 0.99213857,0.99213857 0 0 1 0.011244,-0.010504 z m -0.014842,0.014366 A 0.99213857,0.99213857 0 0 0 1.2576132,1.6204694 l 0.8592106,0.496064 z M 2.1168238,2.1165334 2.818078,2.8177955 A 0.99213857,0.99213857 0 0 0 2.9760345,2.6126001 Z M 2.4141109,1.1707845 a 0.99213857,0.99213857 0 0 1 0.046644,0.016245 0.99213857,0.99213857 0 0 0 -0.046644,-0.016245 z m 0.092877,0.034384 a 0.99213857,0.99213857 0 0 1 0.045022,0.020954 0.99213857,0.99213857 0 0 0 -0.045022,-0.020954 z m 0.089039,0.043509 a 0.99213857,0.99213857 0 0 1 0.016271,0.00966 l 5.291e-4,-0.00106 a 0.99213857,0.99213857 0 0 0 -0.016853,-0.00865 z m -0.9746823,1.7260488 -5.292e-4,0.00106 a 0.99213857,0.99213857 0 0 0 0.016853,0.00865 0.99213857,0.99213857 0 0 1 -0.016271,-0.00966 z m 0.060293,0.032225 a 0.99213857,0.99213857 0 0 0 0.045019,0.020954 0.99213857,0.99213857 0 0 1 -0.045019,-0.020954 z m 0.091253,0.039082 a 0.99213857,0.99213857 0 0 0 0.046646,0.016244 0.99213857,0.99213857 0 0 1 -0.046646,-0.016244 z m 1.0415946,-0.224338 a 0.99213857,0.99213857 0 0 1 -0.011244,0.010477 0.99213857,0.99213857 0 0 0 0.011244,-0.010477 z M 1.8674716,3.0757331 a 0.99213857,0.99213857 0 0 0 0.047932,0.011509 0.99213857,0.99213857 0 0 1 -0.047932,-0.011509 z m 0.8847073,-0.198187 a 0.99213857,0.99213857 0 0 1 -0.039318,0.030812 0.99213857,0.99213857 0 0 0 0.039318,-0.030812 z M 1.964307,3.0958007 a 0.99213857,0.99213857 0 0 0 0.049191,0.00672 0.99213857,0.99213857 0 0 1 -0.049191,-0.00672 z M 2.6730141,2.9371961 a 0.99213857,0.99213857 0 0 1 -0.042191,0.026711 0.99213857,0.99213857 0 0 0 0.042191,-0.026711 z M 2.0628118,3.1061269 a 0.99213857,0.99213857 0 0 0 0.049483,0.00185 0.99213857,0.99213857 0 0 1 -0.049483,-0.00185 z M 2.5883437,2.9885968 a 0.99213857,0.99213857 0 0 1 -0.044593,0.022356 0.99213857,0.99213857 0 0 0 0.044593,-0.022356 z M 2.1620415,3.1065846 a 0.99213857,0.99213857 0 0 0 0.049242,-0.0032 0.99213857,0.99213857 0 0 1 -0.049242,0.0032 z M 2.4987972,3.031362 a 0.99213857,0.99213857 0 0 1 -0.046392,0.017726 0.99213857,0.99213857 0 0 0 0.046392,-0.017726 z m -0.2382297,0.06577 a 0.99213857,0.99213857 0 0 0 0.048871,-0.00812 0.99213857,0.99213857 0 0 1 -0.048871,0.00812 z M 2.4055838,3.064918 a 0.99213857,0.99213857 0 0 1 -0.047977,0.01299 0.99213857,0.99213857 0 0 0 0.047977,-0.01299 z"
     id="path11042-53-6-2-0-6-2-8-4"
     inkscape:connector-curvature="0" />
  <circle
     style="display:inline;opacity:1;fill:#aea795;fill-opacity:1;stroke:none;stroke-width:0.02738563;stroke-linecap:round;stroke-linejoin:round;stroke-miterlimit:4;stroke-dasharray:none;stroke-dashoffset:0;stroke-opacity:1;enable-background:new"
     id="path7147-9-1-3-9-3"
     cx="2.1167021"
     cy="-2.1165586"
     transform="scale(1,-1)"
     r="0.39685544" />
  <circle
     style="display:inline;opacity:1;fill:#faf8f6;fill-opacity:1;stroke:none;stroke-width:0.01889788;stroke-linecap:round;stroke-linejoin:round;stroke-miterlimit:4;stroke-dasharray:none;stroke-dashoffset:0;stroke-opacity:1;enable-background:new"
     id="path7164-3-8-7-7-3"
     cx="2.1167021"
     cy="2.1165586"
     r="0.2645703" />
  <circle
     style="display:inline;opacity:1;fill:#4d4d4d;fill-opacity:1;stroke:none;stroke-width:0.03307129;stroke-linecap:round;stroke-linejoin:round;stroke-miterlimit:4;stroke-dasharray:none;stroke-dashoffset:0;stroke-opacity:1;enable-background:new"
     id="path7166-6-7-5-3-3"
     cx="2.1167021"
     cy="2.1165586"
     r="0.13228515" />
  <path
     transform="matrix(0.26457031,0,0,0.26457031,-84.662352,-62.438594)"
     style="color:#000000;display:inline;overflow:visible;visibility:visible;opacity:0.4;fill:none;fill-opacity:1;fill-rule:nonzero;stroke:url(#linearGradient993);stroke-width:2;stroke-miterlimit:4;stroke-dasharray:none;stroke-opacity:1;marker:none;enable-background:accumulate"
     d="m 325.09646,237 c -2.80769,0 -3.10979,0.28839 -3.09603,3.10176 V 244 v 3.89824 c -0.0138,2.81337 0.28834,3.10176 3.09603,3.10176 h 5.8075 C 333.71166,251 334,250.71165 334,247.89824 V 244 240.10176 C 334,237.28836 333.71165,237 330.90396,237 Z"
     id="path937"
     inkscape:connector-curvature="0"
     sodipodi:nodetypes="scccssscsss"
     clip-path="url(#clipPath983)" />
</svg>
